X:963
T:Take A Message To Julie
R:reel
C:Brian Finnegan
F:Brian Finnegan: When the Party's Over
Z:id:hn-reel-963
M:C|
L:1/8
K:Edor
EBAG AE~E2 | GBdB cA~A2 | EBAG AE~E2 | GAdA GAdA |
EBAG AE~E2 | GBdB cA~A2 | edBA BE~E2 |1 DEFD ~E3D :|2 DEFD E3d ||
|: eB~B2 GBeB | dA~A2 GAdG | =cG~G2 EG=cG | ^cAAd AAe2 |
eB~B2 GBeB | dA~A2 GAdG | EDGB AF~F2 |1 DEGF E3d :|2 DEGF ~E3D ||

